;FLAVOR:Marlin
;TIME:8377
;Filament used: 14.1346m
;Layer height: 0.2
;MINX:31.5
;MINY:63.5
;MINZ:0.2
;MAXX:188.5
;MAXY:156.5
;MAXZ:17
;Generated with Cura_SteamEngine 5.3.0
M82 ;absolute extrusion mode
; Ender 3 S1 Start G-code
G92 E0 ; Reset Extruder
G28 ; Home all axes
G1 Z10.0 F3000 ; Move Z Axis up little to prevent scratching of Heat Bed
G1 X0 Y0

M104 S215.0
M190 S65
M109 S215.0

G1 X0.1 Y20 Z0.3 F5000.0 ; Move to start position
G1 X0.1 Y200.0 Z0.3 F1500.0 E15 ; Draw the first line
G1 X0.4 Y200.0 Z0.3 F5000.0 ; Move to side a little
G1 X0.4 Y20 Z0.3 F1500.0 E30 ; Draw the second line
G92 E0 ; Reset Extruder
G1 Z2.0 F3000 ; Move Z Axis up little to prevent scratching of Heat Bed
G1 X5 Y20 Z0.3 F5000.0 ; Move over to prevent blob squish

G92 E0
G92 E0
G1 F2400 E-0.8
;LAYER_COUNT:85
;LAYER:0
M107
M204 S2000
G0 F9000 X37.669 Y65.531 Z0.2
M204 S500
;TYPE:SKIRT
G1 F2400 E0
G1 F3600 X38.482 Y65.138 E0.03003
G1 X39.327 Y64.818 E0.06009
G1 X40.196 Y64.575 E0.0901
G1 X41.084 Y64.409 E0.12015
G1 X42.223 Y64.313 E0.15816
G1 X42.83 Y64.3 E0.17836
G1 X176.939 Y64.301 E4.63884
G1 X177.637 Y64.311 E4.66206
G1 X178.539 Y64.364 E4.69211
G1 X179.432 Y64.496 E4.72213
G1 X180.31 Y64.707 E4.75217
G1 X181.166 Y64.995 E4.78221
G1 X181.993 Y65.357 E4.81223
G1 X182.785 Y65.792 E4.84229
G1 X183.536 Y66.294 E4.87233
G1 X184.239 Y66.861 E4.90237
G1 X184.889 Y67.488 E4.93241
G1 X185.481 Y68.17 E4.96245
G1 X186.011 Y68.901 E4.99248
G1 X186.473 Y69.677 E5.02251
G1 X186.866 Y70.49 E5.05255
G1 X187.184 Y71.335 E5.08258
G1 X187.427 Y72.205 E5.11262
G1 X187.592 Y73.093 E5.14266
G1 X187.687 Y74.223 E5.18038
G1 X187.7 Y74.83 E5.20057
G1 X187.699 Y144.89 E7.53078
G1 X187.69 Y145.617 E7.55496
G1 X187.639 Y146.519 E7.58501
G1 X187.508 Y147.413 E7.61506
G1 X187.299 Y148.291 E7.64508
G1 X187.013 Y149.148 E7.67513
G1 X186.652 Y149.976 E7.70517
G1 X186.22 Y150.768 E7.73518
G1 X185.719 Y151.52 E7.76523
G1 X185.153 Y152.224 E7.79527
G1 X184.528 Y152.875 E7.82529
G1 X183.847 Y153.469 E7.85535
G1 X183.116 Y154 E7.8854
G1 X182.342 Y154.464 E7.91541
G1 X181.529 Y154.858 E7.94546
G1 X180.685 Y155.178 E7.97548
G1 X179.815 Y155.423 E8.00554
G1 X178.928 Y155.589 E8.03556
G1 X177.777 Y155.687 E8.07398
G1 X177.17 Y155.7 E8.09417
G1 X43.075 Y155.699 E12.55419
G1 X42.377 Y155.69 E12.57741
G1 X41.476 Y155.639 E12.60742
G1 X40.582 Y155.507 E12.63748
G1 X39.704 Y155.298 E12.6675
G1 X38.847 Y155.011 E12.69756
G1 X38.02 Y154.65 E12.72757
G1 X37.227 Y154.217 E12.75762
G1 X36.476 Y153.716 E12.78765
G1 X35.772 Y153.15 E12.81769
G1 X35.121 Y152.524 E12.84773
G1 X34.528 Y151.843 E12.87777
G1 X33.998 Y151.112 E12.9078
G1 X33.534 Y150.337 E12.93784
G1 X33.14 Y149.524 E12.96789
G1 X32.82 Y148.68 E12.99791
G1 X32.576 Y147.81 E13.02796
G1 X32.41 Y146.922 E13.05801
G1 X32.313 Y145.767 E13.09656
G1 X32.3 Y145.158 E13.11682
G1 X32.301 Y75.036 E15.44909
G1 X32.31 Y74.371 E15.47121
G1 X32.362 Y73.469 E15.50126
G1 X32.494 Y72.576 E15.53128
G1 X32.704 Y71.698 E15.56131
G1 X32.991 Y70.841 E15.59137
G1 X33.353 Y70.014 E15.62139
G1 X33.786 Y69.222 E15.65142
G1 X34.288 Y68.471 E15.68146
G1 X34.855 Y67.767 E15.71153
G1 X35.481 Y67.117 E15.74154
G1 X36.162 Y66.524 E15.77157
G1 X36.894 Y65.994 E15.80163
G1 X37.669 Y65.531 E15.83166
M204 S2000
G0 F9000 X37.495 Y65.171
M204 S500
G1 F3600 X38.34 Y64.764 E15.86285
G1 X39.185 Y64.444 E15.89291
G1 X40.122 Y64.182 E15.92527
G1 X41.05 Y64.01 E15.95666
G1 X42.189 Y63.914 E15.99467
G1 X42.83 Y63.9 E16.016
G1 X176.945 Y63.901 E20.47668
G1 X177.66 Y63.912 E20.50047
G1 X178.597 Y63.968 E20.53169
G1 X179.49 Y64.1 E20.56171
G1 X180.438 Y64.328 E20.59414
G1 X181.294 Y64.616 E20.62418
G1 X182.186 Y65.006 E20.65656
G1 X182.978 Y65.441 E20.68661
G1 X183.758 Y65.961 E20.71779
G1 X184.517 Y66.573 E20.75022
G1 X185.167 Y67.2 E20.78026
G1 X185.805 Y67.935 E20.81263
G1 X186.355 Y68.696 E20.84386
G1 X186.817 Y69.472 E20.8739
G1 X187.24 Y70.349 E20.90628
G1 X187.569 Y71.227 E20.93747
G1 X187.82 Y72.132 E20.9687
G1 X187.991 Y73.059 E21.00006
G1 X188.086 Y74.189 E21.03777
G1 X188.1 Y74.83 E21.0591
G1 X188.099 Y144.895 E23.38947
G1 X188.089 Y145.64 E23.41425
G1 X188.035 Y146.577 E23.44547
G1 X187.904 Y147.471 E23.47552
G1 X187.688 Y148.384 E23.50672
G1 X187.38 Y149.308 E23.53912
G1 X187.019 Y150.136 E23.56916
G1 X186.553 Y150.99 E23.60152
G1 X186.031 Y151.771 E23.63276
G1 X185.465 Y152.475 E23.66281
G1 X184.817 Y153.152 E23.69398
G1 X184.082 Y153.793 E23.72641
G1 X183.351 Y154.324 E23.75646
G1 X182.548 Y154.807 E23.78763
G1 X181.671 Y155.232 E23.82005
G1 X180.827 Y155.552 E23.85007
G1 X179.889 Y155.816 E23.88248
G1 X178.962 Y155.988 E23.91384
G1 X177.811 Y156.086 E23.95226
G1 X177.179 Y156.1 E23.97328
G1 X43.07 Y156.099 E28.43377
G1 X42.354 Y156.089 E28.45758
G1 X41.418 Y156.035 E28.48877
G1 X40.524 Y155.903 E28.51882
G1 X39.611 Y155.687 E28.55003
G1 X38.687 Y155.378 E28.58243
G1 X37.86 Y155.017 E28.61244
G1 X37.005 Y154.55 E28.64485
G1 X36.225 Y154.028 E28.67606
G1 X35.521 Y153.462 E28.70611
G1 X34.819 Y152.787 E28.7385
G1 X34.226 Y152.106 E28.76853
G1 X33.674 Y151.347 E28.79975
G1 X33.174 Y150.511 E28.83215
G1 X32.766 Y149.666 E28.86336
G1 X32.446 Y148.822 E28.89338
G1 X32.183 Y147.884 E28.92578
G1 X32.011 Y146.955 E28.9572
G1 X31.913 Y145.776 E28.99655
G1 X31.9 Y145.158 E29.01711
G1 X31.901 Y75.031 E31.34954
G1 X31.911 Y74.348 E31.37226
G1 X31.966 Y73.411 E31.40348
G1 X32.098 Y72.518 E31.43351
G1 X32.315 Y71.605 E31.46472
G1 X32.612 Y70.714 E31.49596
G1 X33.002 Y69.822 E31.52834
G1 X33.453 Y69 E31.55952
G1 X33.976 Y68.22 E31.59076
G1 X34.543 Y67.516 E31.62082
G1 X35.218 Y66.815 E31.65319
G1 X35.899 Y66.222 E31.68322
G1 X36.659 Y65.67 E31.71446
G1 X37.495 Y65.171 E31.74685
M204 S2000
G0 F9000 X37.321 Y64.811
M204 S500
G1 F3600 X38.198 Y64.39 E31.7792
G1 X39.043 Y64.07 E31.80925
G1 X40.049 Y63.789 E31.84399
G1 X41.016 Y63.611 E31.8767
G1 X42.155 Y63.515 E31.91472
G1 X42.83 Y63.5 E31.93717
G1 X176.951 Y63.501 E36.39805
G1 X177.684 Y63.513 E36.42244
G1 X178.655 Y63.572 E36.45479
G1 X179.584 Y63.711 E36.48603
G1 X180.532 Y63.939 E36.51846
G1 X181.454 Y64.249 E36.55082
G1 X182.379 Y64.655 E36.58442
G1 X183.171 Y65.09 E36.61447
G1 X183.98 Y65.628 E36.64678
G1 X184.795 Y66.285 E36.6816
G1 X185.445 Y66.912 E36.71164
G1 X186.107 Y67.673 E36.74519
G1 X186.699 Y68.491 E36.77877
G1 X187.161 Y69.267 E36.80881
G1 X187.615 Y70.209 E36.84359
G1 X187.944 Y71.087 E36.87477
G1 X188.213 Y72.059 E36.90832
G1 X188.39 Y73.025 E36.94098
G1 X188.485 Y74.155 E36.9787
G1 X188.5 Y74.83 E37.00116
G1 X188.499 Y144.9 E39.33169
G1 X188.488 Y145.663 E39.35707
G1 X188.431 Y146.635 E39.38946
G1 X188.3 Y147.529 E39.41951
G1 X188.077 Y148.476 E39.45187
G1 X187.747 Y149.468 E39.48664
G1 X187.386 Y150.296 E39.51668
G1 X186.886 Y151.212 E39.55139
G1 X186.343 Y152.022 E39.58383
G1 X185.777 Y152.726 E39.61387
G1 X185.106 Y153.429 E39.64619
G1 X184.317 Y154.117 E39.68101
G1 X183.586 Y154.648 E39.71106
G1 X182.754 Y155.15 E39.74338
G1 X181.813 Y155.606 E39.77816
G1 X180.969 Y155.926 E39.80818
G1 X179.997 Y156.201 E39.84178
G1 X178.996 Y156.387 E39.87564
G1 X177.845 Y156.485 E39.91407
G1 X177.188 Y156.5 E39.93592
G1 X43.064 Y156.499 E44.39691
G1 X42.331 Y156.488 E44.42129
G1 X41.36 Y156.431 E44.45364
G1 X40.466 Y156.299 E44.4837
G1 X39.484 Y156.066 E44.51726
G1 X38.527 Y155.745 E44.55084
G1 X37.7 Y155.384 E44.58085
G1 X36.813 Y154.901 E44.61444
G1 X35.974 Y154.34 E44.64801
G1 X35.27 Y153.774 E44.67805
G1 X34.517 Y153.05 E44.7128
G1 X33.924 Y152.369 E44.74283
G1 X33.331 Y151.552 E44.77641
G1 X32.814 Y150.685 E44.80998
G1 X32.392 Y149.808 E44.84235
G1 X32.072 Y148.964 E44.87237
G1 X31.798 Y147.992 E44.90596
G1 X31.612 Y146.988 E44.93992
G1 X31.514 Y145.809 E44.97927
G1 X31.5 Y145.158 E45.00093
G1 X31.501 Y75.025 E47.33356
G1 X31.512 Y74.325 E47.35685
G1 X31.57 Y73.353 E47.38924
G1 X31.702 Y72.46 E47.41926
G1 X31.926 Y71.513 E47.45163
G1 X32.245 Y70.554 E47.48524
G1 X32.635 Y69.662 E47.51762
G1 X33.102 Y68.808 E47.54999
G1 X33.664 Y67.969 E47.58358
G1 X34.231 Y67.265 E47.61365
G1 X34.955 Y66.513 E47.64837
G1 X35.636 Y65.92 E47.6784
G1 X36.424 Y65.346 E47.71083
G1 X37.321 Y64.811 E47.74556
M204 S2000
G1 F2400 E46.94556
;MESH:Enclosure_2_Base.stl
G0 F9000 X43.3 Y73.835
G0 X176.9 Y144.9
M204 S500
;TYPE:WALL-INNER
G1 F2400 E47.74556
G1 F3600 X176.9 Y75.1 E50.06712
G1 X43.1 Y75.1 E54.51733
G1 X43.1 Y144.9 E56.83888
G1 X176.9 Y144.9 E61.28909
M204 S2000
G0 F9000 X177.3 Y145.3
M204 S500
;TYPE:WALL-OUTER
G1 F3600 X177.3 Y74.7 E63.63726
G1 X42.7 Y74.7 E68.11407
G1 X42.7 Y145.3 E70.46224
G1 X177.3 Y145.3 E74.93905
M204 S2000
G0 F9000 X177.03 Y145.03
G0 X176.8 Y144.54
G0 X176.54 Y144.54
M204 S500
;TYPE:SKIN
G1 F3600 X43.46 Y144.54 E79.36531
G1 X43.46 Y75.46 E81.66292
G1 X176.54 Y75.46 E86.08918
G1 X176.54 Y144.54 E88.38679
M204 S2000
G1 F2400 E87.58679
G0 F9000 X176.8 Y144.54
G0 X176.8 Y76.213
G0 X176.339 Y76.213
M204 S500
G1 F2400 E88.38679
G1 F3600 X175.786 Y75.659 E88.41282
M204 S2000
G0 F9000 X175.22 Y75.659
M204 S500
G1 F3600 X176.339 Y76.779 E88.46548
M204 S2000
G0 F9000 X176.339 Y77.344
M204 S500
G1 F3600 X174.654 Y75.659 E88.54474
M204 S2000
G0 F9000 X174.088 Y75.659
M204 S500
G1 F3600 X176.339 Y77.91 E88.65062
M204 S2000
G0 F9000 X176.339 Y78.476
M204 S500
G1 F3600 X173.523 Y75.659 E88.7831
M204 S2000
G0 F9000 X172.957 Y75.659
M204 S500
G1 F3600 X176.339 Y79.041 E88.94218
M204 S2000
G0 F9000 X176.339 Y79.607
M204 S500
G1 F3600 X172.391 Y75.659 E89.12788
M204 S2000
G0 F9000 X171.826 Y75.659
M204 S500
G1 F3600 X176.339 Y80.173 E89.34018
M204 S2000
G0 F9000 X176.339 Y80.738
M204 S500
G1 F3600 X171.26 Y75.659 E89.57908
M204 S2000
G0 F9000 X170.694 Y75.659
M204 S500
G1 F3600 X176.339 Y81.304 E89.8446
M204 S2000
G0 F9000 X176.339 Y81.87
M204 S500
G1 F3600 X170.129 Y75.659 E90.13673
M204 S2000
G0 F9000 X169.563 Y75.659
M204 S500
G1 F3600 X176.339 Y82.435 E90.45545
M204 S2000
G0 F9000 X176.339 Y83.001
M204 S500
G1 F3600 X168.997 Y75.659 E90.80079
M204 S2000
G0 F9000 X168.432 Y75.659
M204 S500
G1 F3600 X176.339 Y83.567 E91.17274
M204 S2000
G0 F9000 X176.339 Y84.132
M204 S500
G1 F3600 X167.866 Y75.659 E91.57128
M204 S2000
G0 F9000 X167.3 Y75.659
M204 S500
G1 F3600 X176.339 Y84.698 E91.99645
M204 S2000
G0 F9000 X176.339 Y85.264
M204 S500
G1 F3600 X166.735 Y75.659 E92.44821
M204 S2000
G0 F9000 X166.169 Y75.659
M204 S500
G1 F3600 X176.339 Y85.83 E92.9266
M204 S2000
G0 F9000 X176.339 Y86.395
M204 S500
G1 F3600 X165.603 Y75.659 E93.43159
M204 S2000
G0 F9000 X165.038 Y75.659
M204 S500
G1 F3600 X176.339 Y86.961 E93.96318
M204 S2000
G0 F9000 X176.339 Y87.527
M204 S500
G1 F3600 X164.472 Y75.659 E94.52139
M204 S2000
G0 F9000 X163.906 Y75.659
M204 S500
G1 F3600 X176.339 Y88.092 E95.1062
M204 S2000
G0 F9000 X176.339 Y88.658
M204 S500
G1 F3600 X163.34 Y75.659 E95.71763
M204 S2000
G0 F9000 X162.775 Y75.659
M204 S500
G1 F3600 X176.339 Y89.224 E96.35567
M204 S2000
G0 F9000 X176.339 Y89.789
M204 S500
G1 F3600 X162.209 Y75.659 E97.0203
M204 S2000
G0 F9000 X161.643 Y75.659
M204 S500
G1 F3600 X176.339 Y90.355 E97.71155
M204 S2000
G0 F9000 X176.339 Y90.921
M204 S500
G1 F3600 X161.078 Y75.659 E98.42941
M204 S2000
G0 F9000 X160.512 Y75.659
M204 S500
G1 F3600 X176.339 Y91.486 E99.17386
M204 S2000
G0 F9000 X176.339 Y92.052
M204 S500
G1 F3600 X159.946 Y75.659 E99.94494
M204 S2000
G0 F9000 X159.381 Y75.659
M204 S500
G1 F3600 X176.339 Y92.618 E100.74261
M204 S2000
G0 F9000 X176.339 Y93.183
M204 S500
G1 F3600 X158.815 Y75.659 E101.56689
M204 S2000
G0 F9000 X158.249 Y75.659
M204 S500
G1 F3600 X176.339 Y93.749 E102.41779
M204 S2000
G0 F9000 X176.339 Y94.315
M204 S500
G1 F3600 X157.684 Y75.659 E103.29528
M204 S2000
G0 F9000 X157.118 Y75.659
M204 S500
G1 F3600 X176.339 Y94.881 E104.19941
M204 S2000
G0 F9000 X176.339 Y95.446
M204 S500
G1 F3600 X156.552 Y75.659 E105.13012
M204 S2000
G0 F9000 X155.987 Y75.659
M204 S500
G1 F3600 X176.339 Y96.012 E106.08744
M204 S2000
G0 F9000 X176.339 Y96.578
M204 S500
G1 F3600 X155.421 Y75.659 E107.07139
M204 S2000
G0 F9000 X154.855 Y75.659
M204 S500
G1 F3600 X176.339 Y97.143 E108.08193
M204 S2000
G0 F9000 X176.339 Y97.709
M204 S500
G1 F3600 X154.289 Y75.659 E109.11909
M204 S2000
G0 F9000 X153.724 Y75.659
M204 S500
G1 F3600 X176.339 Y98.275 E110.18286
M204 S2000
G0 F9000 X176.339 Y98.84
M204 S500
G1 F3600 X153.158 Y75.659 E111.27322
M204 S2000
G0 F9000 X152.592 Y75.659
M204 S500
G1 F3600 X176.339 Y99.406 E112.39021
M204 S2000
G0 F9000 X176.339 Y99.972
M204 S500
G1 F3600 X152.027 Y75.659 E113.53379
M204 S2000
G0 F9000 X151.461 Y75.659
M204 S500
G1 F3600 X176.339 Y100.537 E114.70398
M204 S2000
G0 F9000 X176.339 Y101.103
M204 S500
G1 F3600 X150.895 Y75.659 E115.90078
M204 S2000
G0 F9000 X150.33 Y75.659
M204 S500
G1 F3600 X176.339 Y101.669 E117.12419
M204 S2000
G0 F9000 X176.339 Y102.234
M204 S500
G1 F3600 X149.764 Y75.659 E118.3742
M204 S2000
G0 F9000 X149.198 Y75.659
M204 S500
G1 F3600 X176.339 Y102.8 E119.65083
M204 S2000
G0 F9000 X176.339 Y103.366
M204 S500
G1 F3600 X148.633 Y75.659 E120.95406
M204 S2000
G0 F9000 X148.067 Y75.659
M204 S500
G1 F3600 X176.339 Y103.931 E122.28388
M204 S2000
G0 F9000 X176.339 Y104.497
M204 S500
G1 F3600 X147.501 Y75.659 E123.64033
M204 S2000
G0 F9000 X146.936 Y75.659
M204 S500
G1 F3600 X176.339 Y105.063 E125.02338
M204 S2000
G0 F9000 X176.339 Y105.629
M204 S500
G1 F3600 X146.37 Y75.659 E126.43306
M204 S2000
G0 F9000 X145.804 Y75.659
M204 S500
G1 F3600 X176.339 Y106.194 E127.86933
M204 S2000
G0 F9000 X176.339 Y106.76
M204 S500
G1 F3600 X145.239 Y75.659 E129.3322
M204 S2000
G0 F9000 X144.673 Y75.659
M204 S500
G1 F3600 X176.339 Y107.326 E130.8217
M204 S2000
G0 F9000 X176.339 Y107.891
M204 S500
G1 F3600 X144.107 Y75.659 E132.33779
M204 S2000
G0 F9000 X143.541 Y75.659
M204 S500
G1 F3600 X176.339 Y108.457 E133.88051
M204 S2000
G0 F9000 X176.339 Y109.023
M204 S500
G1 F3600 X142.976 Y75.659 E135.44983
M204 S2000
G0 F9000 X142.41 Y75.659
M204 S500
G1 F3600 X176.339 Y109.588 E137.04574
M204 S2000
G0 F9000 X176.339 Y110.154
M204 S500
G1 F3600 X141.844 Y75.659 E138.66828
M204 S2000
G0 F9000 X141.279 Y75.659
M204 S500
G1 F3600 X176.339 Y110.72 E140.31742
M204 S2000
G0 F9000 X176.339 Y111.285
M204 S500
G1 F3600 X140.713 Y75.659 E141.99316
M204 S2000
G0 F9000 X140.147 Y75.659
M204 S500
G1 F3600 X176.339 Y111.851 E143.69552
M204 S2000
G0 F9000 X176.339 Y112.417
M204 S500
G1 F3600 X139.582 Y75.659 E145.42448
M204 S2000
G0 F9000 X139.016 Y75.659
M204 S500
G1 F3600 X176.339 Y112.982 E147.18004
M204 S2000
G0 F9000 X176.339 Y113.548
M204 S500
G1 F3600 X138.45 Y75.659 E148.96222
M204 S2000
G0 F9000 X137.885 Y75.659
M204 S500
G1 F3600 X176.339 Y114.114 E150.771
M204 S2000
G0 F9000 X176.339 Y114.679
M204 S500
G1 F3600 X137.319 Y75.659 E152.60638
M204 S2000
G0 F9000 X136.753 Y75.659
M204 S500
G1 F3600 X176.339 Y115.245 E154.46839
M204 S2000
G0 F9000 X176.339 Y115.811
M204 S500
G1 F3600 X136.188 Y75.659 E156.35699
M204 S2000
G0 F9000 X135.622 Y75.659
M204 S500
G1 F3600 X176.339 Y116.377 E158.27222
M204 S2000
G0 F9000 X176.339 Y116.942
M204 S500
G1 F3600 X135.056 Y75.659 E160.21404
M204 S2000
G0 F9000 X134.491 Y75.659
M204 S500
G1 F3600 X176.339 Y117.508 E162.18247
M204 S2000
G0 F9000 X176.339 Y118.074
M204 S500
G1 F3600 X133.925 Y75.659 E164.17752
M204 S2000
G0 F9000 X133.359 Y75.659
M204 S500
G1 F3600 X176.339 Y118.639 E166.19916
M204 S2000
G0 F9000 X176.339 Y119.205
M204 S500
G1 F3600 X132.793 Y75.659 E168.24743
M204 S2000
G0 F9000 X132.228 Y75.659
M204 S500
G1 F3600 X176.339 Y119.771 E170.3223
M204 S2000
G0 F9000 X176.339 Y120.336
M204 S500
G1 F3600 X131.662 Y75.659 E172.42377
M204 S2000
G0 F9000 X131.096 Y75.659
M204 S500
G1 F3600 X176.339 Y120.902 E174.55187
M204 S2000
G0 F9000 X176.339 Y121.468
M204 S500
G1 F3600 X130.531 Y75.659 E176.70656
M204 S2000
G0 F9000 X129.965 Y75.659
M204 S500
G1 F3600 X176.339 Y122.033 E178.88785
M204 S2000
G0 F9000 X176.339 Y122.599
M204 S500
G1 F3600 X129.399 Y75.659 E181.09576
M204 S2000
G0 F9000 X128.834 Y75.659
M204 S500
G1 F3600 X176.339 Y123.165 E183.33027
M204 S2000
G0 F9000 X176.339 Y123.73
M204 S500
G1 F3600 X128.268 Y75.659 E185.59139
M204 S2000
G0 F9000 X127.702 Y75.659
M204 S500
G1 F3600 X176.339 Y124.296 E187.87912
M204 S2000
G0 F9000 X176.339 Y124.862
