;FLAVOR:Marlin
;TIME:12154
;Filament used: 18.0688m
;Layer height: 0.2
;MINX:30.5
;MINY:62.5
;MINZ:0.2
;MAXX:189.5
;MAXY:157.5
;MAXZ:19
;Generated with Cura_SteamEngine 5.3.0
M82 ;absolute extrusion mode
; Ender 3 S1 Start G-code
G92 E0 ; Reset Extruder
G28 ; Home all axes
G1 Z10.0 F3000 ; Move Z Axis up little to prevent scratching of Heat Bed
G1 X0 Y0

M104 S215.0
M190 S65
M109 S215.0

G1 X0.1 Y20 Z0.3 F5000.0 ; Move to start position
G1 X0.1 Y200.0 Z0.3 F1500.0 E15 ; Draw the first line
G1 X0.4 Y200.0 Z0.3 F5000.0 ; Move to side a little
G1 X0.4 Y20 Z0.3 F1500.0 E30 ; Draw the second line
G92 E0 ; Reset Extruder
G1 Z2.0 F3000 ; Move Z Axis up little to prevent scratching of Heat Bed
G1 X5 Y20 Z0.3 F5000.0 ; Move over to prevent blob squish

G92 E0
G92 E0
G1 F2400 E-0.8
;LAYER_COUNT:95
;LAYER:0
M107
M204 S2000
G0 F9000 X36.669 Y64.531 Z0.2
M204 S500
;TYPE:SKIRT
G1 F2400 E0
G1 F3600 X37.482 Y64.138 E0.03003
G1 X38.327 Y63.818 E0.06009
G1 X39.196 Y63.575 E0.0901
G1 X40.084 Y63.409 E0.12015
G1 X41.223 Y63.313 E0.15816
G1 X41.83 Y63.3 E0.17836
G1 X66.651 Y63.301 E1.00391
G1 X67.368 Y63.312 E1.02776
G1 X68.508 Y63.394 E1.06577
G1 X70.108 Y63.599 E1.11942
G1 X72.686 Y63.884 E1.20569
G1 X75.239 Y64.093 E1.29089
G1 X77.729 Y64.227 E1.37382
G1 X81.41 Y64.3 E1.49628
G1 X127.189 Y64.3 E3.01889
G1 X129.794 Y64.263 E3.10555
G1 X132.36 Y64.154 E3.19097
G1 X134.867 Y63.976 E3.27456
G1 X137.388 Y63.727 E3.35882
G1 X140.017 Y63.391 E3.44697
G1 X141.021 Y63.313 E3.48046
G1 X141.628 Y63.3 E3.50066
G1 X177.925 Y63.301 E4.7079
G1 X178.623 Y63.31 E4.73112
G1 X179.524 Y63.361 E4.76113
G1 X180.418 Y63.493 E4.79119
G1 X181.296 Y63.702 E4.82121
G1 X182.153 Y63.989 E4.85127
G1 X182.98 Y64.35 E4.88128
G1 X183.773 Y64.783 E4.91133
G1 X184.524 Y65.284 E4.94136
G1 X185.228 Y65.85 E4.9714
G1 X185.879 Y66.476 E5.00144
G1 X186.472 Y67.157 E5.03148
G1 X187.002 Y67.888 E5.06151
G1 X187.466 Y68.663 E5.09155
G1 X187.86 Y69.476 E5.1216
G1 X188.18 Y70.32 E5.15162
G1 X188.424 Y71.19 E5.18167
G1 X188.59 Y72.078 E5.21172
G1 X188.687 Y73.223 E5.24994
G1 X188.7 Y73.83 E5.27013
G1 X188.699 Y145.89 E7.66686
G1 X188.69 Y146.617 E7.69104
G1 X188.639 Y147.519 E7.72109
G1 X188.508 Y148.413 E7.75114
G1 X188.299 Y149.291 E7.78116
G1 X188.013 Y150.148 E7.81121
G1 X187.652 Y150.976 E7.84125
G1 X187.22 Y151.768 E7.87126
G1 X186.719 Y152.52 E7.90131
G1 X186.153 Y153.224 E7.93136
G1 X185.528 Y153.875 E7.96137
G1 X184.847 Y154.469 E7.99143
G1 X184.116 Y155 E8.02148
G1 X183.342 Y155.464 E8.05149
G1 X182.529 Y155.858 E8.08154
G1 X181.685 Y156.178 E8.11156
G1 X180.815 Y156.423 E8.14162
G1 X179.928 Y156.589 E8.17164
G1 X178.777 Y156.687 E8.21006
G1 X178.17 Y156.7 E8.23025
G1 X141.849 Y156.699 E9.43829
G1 X141.131 Y156.688 E9.46218
G1 X139.99 Y156.606 E9.50023
G1 X138.384 Y156.4 E9.55408
G1 X135.814 Y156.116 E9.64008
G1 X133.261 Y155.907 E9.72527
G1 X130.771 Y155.773 E9.80821
G1 X127.09 Y155.7 E9.93067
G1 X81.311 Y155.7 E11.45328
G1 X78.706 Y155.737 E11.53993
G1 X76.14 Y155.846 E11.62536
G1 X73.633 Y156.024 E11.70895
G1 X71.112 Y156.273 E11.79321
G1 X68.483 Y156.609 E11.88136
G1 X67.479 Y156.687 E11.91485
G1 X66.872 Y156.7 E11.93505
G1 X42.075 Y156.699 E12.7598
G1 X41.377 Y156.69 E12.78301
G1 X40.476 Y156.639 E12.81303
G1 X39.582 Y156.507 E12.84309
G1 X38.704 Y156.298 E12.87311
G1 X37.847 Y156.011 E12.90317
G1 X37.02 Y155.65 E12.93318
G1 X36.227 Y155.217 E12.96323
G1 X35.476 Y154.716 E12.99326
G1 X34.772 Y154.15 E13.0233
G1 X34.121 Y153.524 E13.05334
G1 X33.528 Y152.843 E13.08337
G1 X32.998 Y152.112 E13.1134
G1 X32.534 Y151.337 E13.14345
G1 X32.14 Y150.524 E13.1735
G1 X31.82 Y149.68 E13.20352
G1 X31.576 Y148.81 E13.23357
G1 X31.41 Y147.922 E13.26362
G1 X31.313 Y146.767 E13.30217
G1 X31.3 Y146.158 E13.32243
G1 X31.301 Y74.036 E15.72121
G1 X31.31 Y73.371 E15.74333
G1 X31.362 Y72.469 E15.77338
G1 X31.494 Y71.576 E15.80341
G1 X31.704 Y70.698 E15.83344
G1 X31.991 Y69.841 E15.86349
G1 X32.353 Y69.014 E15.89352
G1 X32.786 Y68.222 E15.92354
G1 X33.288 Y67.471 E15.95359
G1 X33.855 Y66.767 E15.98365
G1 X34.481 Y66.117 E16.01367
G1 X35.162 Y65.524 E16.0437
G1 X35.894 Y64.994 E16.07376
G1 X36.669 Y64.531 E16.10379
M204 S2000
G0 F9000 X36.495 Y64.171
M204 S500
G1 F3600 X37.34 Y63.764 E16.13498
G1 X38.185 Y63.444 E16.16503
G1 X39.122 Y63.182 E16.19739
G1 X40.05 Y63.01 E16.22878
G1 X41.189 Y62.914 E16.2668
G1 X41.83 Y62.9 E16.28813
G1 X66.657 Y62.901 E17.11388
G1 X67.397 Y62.913 E17.13849
G1 X68.559 Y62.997 E17.17724
G1 X70.152 Y63.201 E17.23066
G1 X72.727 Y63.486 E17.31683
G1 X75.272 Y63.695 E17.40176
G1 X77.737 Y63.827 E17.48386
G1 X81.418 Y63.9 E17.60632
G1 X127.183 Y63.9 E19.12847
G1 X129.777 Y63.863 E19.21475
G1 X132.343 Y63.754 E19.30017
G1 X134.836 Y63.577 E19.3833
G1 X137.337 Y63.33 E19.46689
G1 X139.986 Y62.992 E19.55571
G1 X141.012 Y62.913 E19.58993
G1 X141.628 Y62.9 E19.61043
G1 X177.93 Y62.901 E20.81784
G1 X178.646 Y62.911 E20.84165
G1 X179.582 Y62.965 E20.87284
G1 X180.476 Y63.097 E20.90289
G1 X181.389 Y63.313 E20.9341
G1 X182.313 Y63.622 E20.9665
G1 X183.14 Y63.983 E20.99652
G1 X183.995 Y64.45 E21.02892
G1 X184.775 Y64.972 E21.06014
G1 X185.479 Y65.538 E21.09018
G1 X186.181 Y66.213 E21.12257
G1 X186.774 Y66.894 E21.1526
G1 X187.326 Y67.653 E21.18382
G1 X187.826 Y68.489 E21.21622
G1 X188.234 Y69.334 E21.24743
G1 X188.554 Y70.178 E21.27745
G1 X188.817 Y71.116 E21.30985
G1 X188.989 Y72.044 E21.34124
G1 X189.086 Y73.189 E21.37946
G1 X189.1 Y73.83 E21.40079
G1 X189.099 Y145.895 E23.79768
G1 X189.089 Y146.64 E23.82246
G1 X189.035 Y147.577 E23.85367
G1 X188.904 Y148.471 E23.88373
G1 X188.688 Y149.384 E23.91493
G1 X188.38 Y150.308 E23.94733
G1 X188.019 Y151.136 E23.97737
G1 X187.553 Y151.99 E24.00973
G1 X187.031 Y152.771 E24.04097
G1 X186.465 Y153.475 E24.07102
G1 X185.817 Y154.152 E24.10219
G1 X185.082 Y154.793 E24.13462
G1 X184.351 Y155.324 E24.16467
G1 X183.548 Y155.807 E24.19584
G1 X182.671 Y156.232 E24.22825
G1 X181.827 Y156.552 E24.25827
G1 X180.889 Y156.816 E24.29068
G1 X179.962 Y156.988 E24.32204
G1 X178.811 Y157.086 E24.36046
G1 X178.17 Y157.1 E24.38179
G1 X141.843 Y157.099 E25.59003
G1 X141.102 Y157.087 E25.61468
G1 X139.939 Y157.003 E25.65346
G1 X138.34 Y156.798 E25.70708
G1 X135.773 Y156.514 E25.79298
G1 X133.228 Y156.305 E25.87791
G1 X130.763 Y156.173 E25.96001
G1 X127.082 Y156.1 E26.08247
G1 X81.317 Y156.1 E27.60462
G1 X78.723 Y156.137 E27.69091
G1 X76.157 Y156.246 E27.77633
G1 X73.664 Y156.423 E27.85945
G1 X71.163 Y156.67 E27.94304
G1 X68.514 Y157.008 E28.03186
G1 X67.488 Y157.087 E28.06609
G1 X66.872 Y157.1 E28.08658
G1 X42.07 Y157.099 E28.9115
G1 X41.354 Y157.089 E28.93532
G1 X40.418 Y157.035 E28.9665
G1 X39.524 Y156.903 E28.99656
G1 X38.611 Y156.687 E29.02776
G1 X37.687 Y156.378 E29.06017
G1 X36.86 Y156.017 E29.09018
G1 X36.005 Y155.55 E29.12258
G1 X35.225 Y155.028 E29.1538
G1 X34.521 Y154.462 E29.18384
G1 X33.819 Y153.787 E29.21623
G1 X33.226 Y153.106 E29.24627
G1 X32.674 Y152.347 E29.27748
G1 X32.174 Y151.511 E29.30988
G1 X31.766 Y150.666 E29.34109
G1 X31.446 Y149.822 E29.37111
G1 X31.183 Y148.884 E29.40351
G1 X31.011 Y147.955 E29.43494
G1 X30.913 Y146.776 E29.47429
G1 X30.9 Y146.158 E29.49485
G1 X30.901 Y74.031 E31.8938
G1 X30.911 Y73.348 E31.91652
G1 X30.966 Y72.411 E31.94774
G1 X31.098 Y71.518 E31.97776
G1 X31.315 Y70.605 E32.00897
G1 X31.612 Y69.714 E32.04021
G1 X32.002 Y68.822 E32.07259
G1 X32.453 Y68 E32.10378
G1 X32.976 Y67.22 E32.13501
G1 X33.543 Y66.516 E32.16508
G1 X34.218 Y65.815 E32.19744
G1 X34.899 Y65.222 E32.22748
G1 X35.659 Y64.67 E32.25872
G1 X36.495 Y64.171 E32.2911
M204 S2000
G0 F9000 X36.321 Y63.811
M204 S500
G1 F3600 X37.198 Y63.39 E32.32346
G1 X38.043 Y63.07 E32.35351
G1 X39.049 Y62.789 E32.38825
G1 X40.016 Y62.611 E32.42095
G1 X41.155 Y62.515 E32.45897
G1 X41.83 Y62.5 E32.48143
G1 X66.663 Y62.501 E33.30737
G1 X67.426 Y62.514 E33.33276
G1 X68.61 Y62.6 E33.37224
G1 X70.196 Y62.803 E33.42542
G1 X72.768 Y63.088 E33.51149
G1 X75.305 Y63.297 E33.59616
G1 X77.745 Y63.427 E33.67743
G1 X81.426 Y63.5 E33.79988
G1 X127.177 Y63.5 E35.32156
G1 X129.76 Y63.463 E35.40748
G1 X132.326 Y63.354 E35.49291
G1 X134.805 Y63.178 E35.57557
G1 X137.286 Y62.933 E35.65849
G1 X139.955 Y62.593 E35.74797
G1 X141.004 Y62.513 E35.78297
G1 X141.628 Y62.5 E35.80372
G1 X177.936 Y62.501 E37.01133
G1 X178.669 Y62.512 E37.03572
G1 X179.64 Y62.569 E37.06807
G1 X180.534 Y62.701 E37.09812
G1 X181.516 Y62.934 E37.13169
G1 X182.473 Y63.255 E37.16527
G1 X183.3 Y63.616 E37.19528
G1 X184.187 Y64.099 E37.22887
G1 X185.026 Y64.66 E37.26244
G1 X185.73 Y65.226 E37.29248
G1 X186.483 Y65.95 E37.32723
G1 X187.076 Y66.631 E37.35726
G1 X187.669 Y67.448 E37.39084
G1 X188.186 Y68.315 E37.42441
G1 X188.608 Y69.192 E37.45678
G1 X188.928 Y70.036 E37.4868
G1 X189.202 Y71.008 E37.52039
G1 X189.388 Y72.01 E37.55429
G1 X189.485 Y73.155 E37.59251
G1 X189.5 Y73.83 E37.61496
G1 X189.499 Y145.9 E40.01202
G1 X189.488 Y146.663 E40.0374
G1 X189.431 Y147.635 E40.06979
G1 X189.3 Y148.529 E40.09984
G1 X189.077 Y149.476 E40.1322
G1 X188.747 Y150.468 E40.16697
G1 X188.386 Y151.296 E40.19701
G1 X187.886 Y152.212 E40.23172
G1 X187.343 Y153.022 E40.26416
G1 X186.777 Y153.726 E40.2942
G1 X186.106 Y154.429 E40.32652
G1 X185.317 Y155.117 E40.36134
G1 X184.586 Y155.648 E40.39139
G1 X183.754 Y156.15 E40.42371
G1 X182.813 Y156.606 E40.45849
G1 X181.969 Y156.926 E40.48851
G1 X180.997 Y157.201 E40.52211
G1 X179.996 Y157.387 E40.55597
G1 X178.845 Y157.485 E40.59439
G1 X178.17 Y157.5 E40.61685
G1 X141.837 Y157.499 E41.82529
G1 X141.073 Y157.486 E41.8507
G1 X139.888 Y157.4 E41.89022
G1 X138.296 Y157.196 E41.9436
G1 X135.732 Y156.912 E42.0294
G1 X133.195 Y156.703 E42.11407
G1 X130.755 Y156.573 E42.19534
G1 X127.074 Y156.5 E42.3178
G1 X81.323 Y156.5 E43.83948
G1 X78.74 Y156.537 E43.9254
G1 X76.174 Y156.646 E44.01082
G1 X73.695 Y156.822 E44.09348
G1 X71.214 Y157.067 E44.1764
G1 X68.545 Y157.407 E44.26589
G1 X67.519 Y157.486 E44.30012
G1 X66.872 Y157.5 E44.32164
G1 X42.064 Y157.499 E45.14676
G1 X41.331 Y157.488 E45.17114
G1 X40.36 Y157.431 E45.20349
G1 X39.466 Y157.299 E45.23355
G1 X38.484 Y157.066 E45.26712
G1 X37.527 Y156.745 E45.30069
G1 X36.7 Y156.384 E45.3307
G1 X35.813 Y155.901 E45.36429
G1 X34.974 Y155.34 E45.39786
G1 X34.27 Y154.774 E45.42791
G1 X33.517 Y154.05 E45.46265
G1 X32.924 Y153.369 E45.49268
G1 X32.331 Y152.552 E45.52626
G1 X31.814 Y151.685 E45.55984
G1 X31.392 Y150.808 E45.59221
G1 X31.072 Y149.964 E45.62223
G1 X30.798 Y148.992 E45.65582
G1 X30.612 Y147.988 E45.68978
G1 X30.514 Y146.809 E45.72913
G1 X30.5 Y146.158 E45.75078
G1 X30.501 Y74.025 E48.14994
G1 X30.512 Y73.325 E48.17322
G1 X30.57 Y72.353 E48.20561
G1 X30.702 Y71.46 E48.23563
G1 X30.926 Y70.513 E48.268
G1 X31.245 Y69.554 E48.30161
G1 X31.635 Y68.662 E48.33399
G1 X32.102 Y67.808 E48.36637
G1 X32.664 Y66.969 E48.39996
G1 X33.231 Y66.265 E48.43002
G1 X33.955 Y65.513 E48.46474
G1 X34.636 Y64.92 E48.49477
G1 X35.424 Y64.346 E48.5272
G1 X36.321 Y63.811 E48.56194
M204 S2000
G1 F2400 E47.76194
G0 F9000 X41.7 Y73.7
M204 S500
G1 F2400 E48.56194
G1 F3600 X67.002 Y73.7 E49.40348
G1 X67.002 Y118.263 E50.88566
G1 X66.764 Y118.314 E50.89375
G1 X66.5 Y117.715 E50.91552
G1 X66.489 Y117.694 E50.91631
G1 X65.974 Y116.83 E50.94977
G1 X65.961 Y116.811 E50.95053
G1 X65.313 Y115.955 E50.98624
G1 X65.297 Y115.936 E50.98707
G1 X64.849 Y115.478 E51.00838
G1 X64.843 Y115.472 E51.00866
G1 X64.448 Y115.103 E51.02664
G1 X64.44 Y115.096 E51.02699
G1 X63.965 Y114.694 E51.04769
G1 X63.958 Y114.689 E51.04797
G1 X63.569 Y114.389 E51.06431
G1 X63.559 Y114.381 E51.06474
G1 X62.816 Y113.882 E51.09451
G1 X62.803 Y113.874 E51.09501
G1 X61.887 Y113.353 E51.13006
G1 X61.875 Y113.347 E51.13051
G1 X61.569 Y113.2 E51.1418
G1 X61.56 Y113.196 E51.14213
G1 X61.132 Y113.016 E51.15757
G1 X61.117 Y113.01 E51.15811
G1 X60.429 Y112.78 E51.18224
G1 X60.422 Y112.778 E51.18248
G1 X59.713 Y112.572 E51.20704
G1 X59.704 Y112.569 E51.20735
G1 X59.474 Y112.514 E51.21522
G1 X59.458 Y112.511 E51.21576
G1 X58.494 Y112.361 E51.24821
G1 X58.472 Y112.359 E51.24894
G1 X57.371 Y112.31 E51.2856
G1 X57.353 Y112.31 E51.2862
G1 X56.558 Y112.347 E51.31267
G1 X56.535 Y112.35 E51.31344
G1 X55.769 Y112.474 E51.33925
G1 X55.759 Y112.476 E51.33959
G1 X55.299 Y112.576 E51.35524
G1 X55.289 Y112.578 E51.35558
G1 X54.762 Y112.721 E51.37374
G1 X54.752 Y112.724 E51.37409
G1 X54.205 Y112.901 E51.39321
G1 X54.194 Y112.905 E51.3936
G1 X53.25 Y113.277 E51.42735
G1 X53.236 Y113.283 E51.42786
G1 X52.844 Y113.473 E51.44235
G1 X52.834 Y113.478 E51.44272
G1 X52.325 Y113.762 E51.4621
G1 X52.316 Y113.767 E51.46245
G1 X52 Y113.964 E51.47483
G1 X51.993 Y113.969 E51.47512
G1 X51.308 Y114.438 E51.50273
G1 X51.299 Y114.445 E51.50311
G1 X50.958 Y114.709 E51.51745
G1 X50.948 Y114.717 E51.51788
G1 X50.324 Y115.265 E51.5455
G1 X50.307 Y115.281 E51.54628
G1 X49.623 Y116.044 E51.58036
G1 X49.611 Y116.059 E51.581
G1 X49.025 Y116.851 E51.61376
G1 X49.014 Y116.868 E51.61444
G1 X48.61 Y117.545 E51.64066
G1 X48.605 Y117.555 E51.64103
G1 X48.381 Y117.985 E51.65716
G1 X48.375 Y117.996 E51.65757
G1 X48.199 Y118.394 E51.67205
G1 X48.196 Y118.402 E51.67233
G1 X48.012 Y118.874 E51.68918
G1 X48.009 Y118.883 E51.6895
G1 X47.887 Y119.243 E51.70214
G1 X47.884 Y119.252 E51.70246
G1 X47.635 Y120.122 E51.73255
G1 X47.632 Y120.133 E51.73293
G1 X47.485 Y120.789 E51.75529
G1 X47.482 Y120.797 E51.75558
G1 X47.381 Y121.354 E51.77441
G1 X47.378 Y121.379 E51.77524
G1 X47.319 Y122.423 E51.81002
G1 X47.319 Y122.442 E51.81065
G1 X47.355 Y123.319 E51.83985
G1 X47.356 Y123.329 E51.84018
G1 X47.38 Y123.601 E51.84926
G1 X47.382 Y123.617 E51.8498
G1 X47.489 Y124.244 E51.87096
G1 X47.491 Y124.254 E51.87129
G1 X47.629 Y124.873 E51.89239
G1 X47.63 Y124.88 E51.89262
G1 X47.81 Y125.563 E51.91612
G1 X47.815 Y125.57 E51.9164
G1 X48.014 Y126.226 E51.9392
G1 X48.023 Y126.251 E51.94009
G1 X48.392 Y127.051 E51.96939
G1 X48.399 Y127.064 E51.96988
G1 X48.577 Y127.384 E51.98206
G1 X48.583 Y127.394 E51.98245
G1 X49.054 Y128.142 E52.01185
G1 X49.061 Y128.152 E52.01225
G1 X49.452 Y128.696 E52.03453
G1 X49.459 Y128.706 E52.03494
G1 X49.776 Y129.093 E52.05158
G1 X49.786 Y129.104 E52.05207
G1 X50.317 Y129.664 E52.07774
G1 X50.325 Y129.672 E52.07812
G1 X50.662 Y129.987 E52.09346
G1 X50.67 Y129.994 E52.09381
G1 X51.245 Y130.481 E52.11888
G1 X51.253 Y130.487 E52.11921
G1 X51.571 Y130.728 E52.13248
G1 X51.578 Y130.733 E52.13277
G1 X51.939 Y130.984 E52.14739
G1 X51.946 Y130.989 E52.14768
G1 X52.296 Y131.211 E52.16146
G1 X52.305 Y131.216 E52.1618
G1 X52.948 Y131.577 E52.18633
G1 X52.965 Y131.586 E52.18697
G1 X53.614 Y131.875 E52.2106
G1 X53.623 Y131.879 E52.21093
G1 X54.067 Y132.049 E52.22674
G1 X54.077 Y132.052 E52.22709
G1 X54.662 Y132.244 E52.24756
G1 X54.67 Y132.247 E52.24785
G1 X55.172 Y132.387 E52.26518
G1 X55.181 Y132.389 E52.26549
G1 X55.562 Y132.476 E52.27849
G1 X55.572 Y132.478 E52.27883
G1 X56.318 Y132.611 E52.30403
G1 X56.327 Y132.612 E52.30433
G1 X56.587 Y132.646 E52.31305
G1 X56.602 Y132.648 E52.31356
G1 X57.421 Y132.695 E52.34084
G1 X57.44 Y132.695 E52.34147
G1 X58.361 Y132.659 E52.37213
G1 X58.385 Y132.656 E52.37293
G1 X59.632 Y132.454 E52.41495
G1 X59.655 Y132.449 E52.41573
G1 X60.406 Y132.235 E52.4417
G1 X60.412 Y132.233 E52.44191
G1 X61.256 Y131.963 E52.47139
G1 X61.279 Y131.955 E52.4722
G1 X62.275 Y131.497 E52.50866
G1 X62.294 Y131.487 E52.50937
G1 X63.176 Y130.959 E52.54356
G1 X63.192 Y130.948 E52.54421
G1 X63.997 Y130.351 E52.57754
G1 X64.013 Y130.337 E52.57825
G1 X64.774 Y129.64 E52.61257
G1 X64.791 Y129.623 E52.61337
G1 X65.47 Y128.826 E52.6482
G1 X65.477 Y128.817 E52.64858
G1 X65.952 Y128.191 E52.67471
G1 X65.965 Y128.172 E52.67548
G1 X66.477 Y127.303 E52.70902
G1 X66.486 Y127.286 E52.70966
G1 X66.767 Y126.685 E52.73173
G1 X67.002 Y126.737 E52.73974
G1 X67.002 Y146.3 E53.3904
G1 X41.7 Y146.3 E54.23195
G1 X41.7 Y73.7 E56.64664
M204 S2000
G0 F9000 X42.1 Y74.1
M204 S500
G1 F3600 X66.602 Y74.1 E57.46158
G1 X66.602 Y117.103 E58.89186
G1 X66.317 Y116.625 E58.91037
G1 X66.28 Y116.57 E58.91258
G1 X65.632 Y115.714 E58.94829
G1 X65.583 Y115.656 E58.95081
G1 X65.135 Y115.198 E58.97212
G1 X65.116 Y115.18 E58.97299
G1 X64.721 Y114.811 E58.99097
G1 X64.699 Y114.791 E58.99196
